X:1
T:Title
%%score { ( 1 3 ) | 2 }
L:1/8
M:4/4
K:A
V:1 treble nm="Grand Piano"
V:3 treble 
V:2 bass 
V:1
 z4 z2[Q:1/4=94] [CE][CE] | [CA]2 [Ec][DB] [CA]2 [CE][CE] | F2 AF [CE]2 [CE][CE] | %3
 [CA]2 [CA][CA] [^Dc]2 [DB]2 | B6 EE | [CA]2 [Ec][DB] [CA]2 [CE][CE] | F2 AA [^Ec]2 [Ec][Ec] | %7
 [Ed]2 FF c2 B2 |[M:3/4] [CA]6 |[M:1/4] cd |[M:4/4] e2 AB c2 AA | [FA]2 [EG][DF] [CE]2 [CE][CE] | %12
 [CA]2 [CA][CA] [^Dc]2 [DB]2 | B6 EE | [CA]2 cB [DA]2 AA |[M:9/8] d2 F F [^DB]2- [DB][DA][DF] | %16
[M:4/4] E2 EE c2 B2 |[M:3/4] [CA]6 |] %18
V:2
 z4 z2 [A,,A,][A,,A,] | [A,,A,]2 [A,,A,]2 [A,,A,]2 [A,,A,][A,,A,] | %2
 [D,A,D]2 [D,F,D][D,A,D] [A,,A,]2 [A,,A,][A,,A,] | [A,,A,]2 [A,,A,][A,,A,] [F,A,]2 [B,,A,]2 | %4
 [E,G,D]6 [E,G,D][E,G,D] | [A,,A,]2 [A,,A,]2 [A,,A,]2 [A,,A,][A,,A,] | %6
 [D,A,D]2 [D,F,D][D,F,D] [C,G,]2 [C,G,][C,G,] | [B,,G,]2 [E,B,D][E,B,D] [E,A,E]2 [E,G,D]2 | %8
[M:3/4] [A,,A,]6 |[M:1/4][K:treble] [A,EA][A,DA] | %10
[M:4/4] [A,CA]2 [A,CE][A,DE] [A,EA]2[K:bass] [A,CE][A,CE] | %11
 [D,D]2 [D,A,][D,A,] [A,,A,]2 [A,,A,][A,,A,] | [A,,A,]2 [A,,A,][A,,A,] [F,A,]2 [B,,A,]2 | %13
 [E,G,D]6 [E,G,D][E,G,D] | [A,,A,]2 [A,,=G,]2 [A,,F,]2 [F,A,D][F,A,D] | %15
[M:9/8] [D,F,D]2 [D,F,D] [D,F,D] [B,,F,]2- [B,,F,][B,,F,][B,,A,] | %16
[M:4/4] [E,G,D]2 [E,G,D][E,G,D] [E,A,E]2 [E,G,D]2 |[M:3/4] [A,,A,]6 |] %18
V:3
 x8 | x8 | x8 | x8 | x8 | x8 | x8 | x8 |[M:3/4] x6 |[M:1/4] x2 |[M:4/4] x8 | x8 | x8 | x8 | %14
 z2 C2 z4 |[M:9/8] x9 |[M:4/4] x8 |[M:3/4] x6 |] %18

